src/assets/curso/temas/tema6/img_08.svg

<svg height="78.616" viewBox="0 0 90 78.616" width="90" xmlns="http://www.w3.org/2000/svg"><g transform="translate(-5 -10.684)"><g fill-rule="evenodd"><path d="m18.7 13h-12.2v26.6h12.2z" fill="#63d0ff"/><path d="m34.8 14.2c-4.2 2.6-10.3 3.3-14 3.3h-2.1v17.5h2.8c3.4 0 4.9 5.4 11.8 4.6 5.3-.6 7.4-4.4 12.5-3.6l5.8.9c3.2.5 5.1-1.1 5.6-3.1l10.1 1.7c7.9 1.4 10.9-7.1 3.2-10.8l-18.7-8.9c-6.2-2.9-10.3-5.6-17-1.6z" fill="#fed1a3"/><path d="m58 47.9c-4-.3-8.7 1-11.4 3.3-2.7 2.4-4.4 6.8-4.6 10.9 4 .3 8.7-1 11.3-3.3 2.7-2.4 4.5-6.9 4.7-10.9z" fill="#ffcd69"/><path d="m25.5 62.4h-19v25.4h87v-25.4h-19c-8 0-9.1 6.5-13.6 9.8-5.2 3.8-16.6 3.8-21.9 0-4.5-3.2-5.5-9.8-13.5-9.8z" fill="#bc9680"/></g><path d="m6.5 41.1h12.2a1.538 1.538 0 0 0 1.5-1.5v-3.1h1.3c.8 0 1.5.6 2.6 1.5a11.614 11.614 0 0 0 7.9 3.2 6.6 6.6 0 0 0 1.4-.1 16.617 16.617 0 0 0 6.3-2.2c1.9-1 3.5-1.8 5.8-1.4l5.8.9a6.4 6.4 0 0 0 6.2-2l.6-.9 8.9 1.5c5 .9 8.2-1.7 9.1-4.5.9-2.9-.3-6.8-5-9.1l-18.7-8.9a13.017 13.017 0 0 0 -1.7-.8c-5.3-2.6-9.9-4.9-16.7-.7-3.8 2.3-9.5 3.1-13.3 3.1h-.6v-3.1a1.538 1.538 0 0 0 -1.5-1.5h-12.1a1.473 1.473 0 0 0 -1.5 1.5v26.7a1.453 1.453 0 0 0 1.5 1.4zm14.3-22c4.3 0 10.5-.9 14.8-3.6 5.4-3.3 8.5-1.7 13.8.9a13.017 13.017 0 0 0 1.7.8l18.7 8.9c3.3 1.6 4 3.9 3.5 5.5s-2.5 3.1-5.7 2.5l-8.7-1.5a6.461 6.461 0 0 0 -.5-2.7 6.607 6.607 0 0 0 -5.2-4.2l-15.2-2.3a1.513 1.513 0 1 0 -.4 3l15.2 2.3a3.72 3.72 0 0 1 2.5 5.8 3.4 3.4 0 0 1 -3.4.9l-5.8-.9c-3.3-.5-5.5.6-7.6 1.7a13.934 13.934 0 0 1 -5.2 1.8c-3.6.4-5.4-1.1-7.1-2.5-1.3-1.1-2.7-2.2-4.5-2.2h-1.3v-14.2zm-12.8-4.6h9.2v23.7h-9.2z"/><path d="m45.6 50.1c-2.8 2.5-4.9 7.3-5.1 11.9a1.617 1.617 0 0 0 1.4 1.6h1.2c4.2 0 8.6-1.4 11.2-3.8 2.8-2.5 4.9-7.3 5.1-11.9a1.617 1.617 0 0 0 -1.4-1.6c-4.5-.2-9.5 1.3-12.4 3.8zm6.8 7.5c-1.9 1.7-5.4 2.9-8.7 3 .5-3.3 2-6.6 4-8.3 1.9-1.7 5.4-2.9 8.7-3-.6 3.4-2.1 6.6-4 8.3z"/><path d="m93.5 60.9h-19c-6.1 0-8.7 3.4-11 6.4a17.635 17.635 0 0 1 -3.5 3.7c-4.7 3.4-15.4 3.4-20.1 0a17.212 17.212 0 0 1 -3.4-3.7c-2.3-3-4.9-6.4-11-6.4h-19a1.538 1.538 0 0 0 -1.5 1.5v25.4a1.538 1.538 0 0 0 1.5 1.5h87a1.538 1.538 0 0 0 1.5-1.5v-25.4a1.538 1.538 0 0 0 -1.5-1.5zm-1.5 25.4h-84v-22.4h17.5c4.6 0 6.5 2.4 8.7 5.2a20.785 20.785 0 0 0 4.1 4.3c5.7 4.1 17.9 4.1 23.6 0a20.785 20.785 0 0 0 4.1-4.3c2.2-2.8 4-5.2 8.7-5.2h17.3z"/><path d="m15.4 73.3a1.5 1.5 0 1 0 1.5 1.5 1.538 1.538 0 0 0 -1.5-1.5z"/><path d="m27 78.3a1.5 1.5 0 1 0 1.5 1.5 1.538 1.538 0 0 0 -1.5-1.5z"/><path d="m71.1 77.3a1.5 1.5 0 1 0 1.5 1.5 1.473 1.473 0 0 0 -1.5-1.5z"/><path d="m85 78.4a1.5 1.5 0 1 0 -1.5-1.5 1.473 1.473 0 0 0 1.5 1.5z"/></g></svg>

<svg xmlns="http://www.w3.org/2000/svg" width="90" height="78.616" viewBox="0 0 90 78.616"><g transform="translate(-5 -10.684)"><path d="M18.7,13H6.5V39.6H18.7V13Z" fill="#63d0ff" fill-rule="evenodd"/><path d="M34.8,14.2c-4.2,2.6-10.3,3.3-14,3.3H18.7V35h2.8c3.4,0,4.9,5.4,11.8,4.6,5.3-.6,7.4-4.4,12.5-3.6l5.8.9c3.2.5,5.1-1.1,5.6-3.1l10.1,1.7c7.9,1.4,10.9-7.1,3.2-10.8L51.8,15.8c-6.2-2.9-10.3-5.6-17-1.6Z" fill="#fed1a3" fill-rule="evenodd"/><path d="M58,47.9c-4-.3-8.7,1-11.4,3.3C43.9,53.6,42.2,58,42,62.1c4,.3,8.7-1,11.3-3.3C56,56.4,57.8,51.9,58,47.9Z" fill="#ffcd69" fill-rule="evenodd"/><path d="M25.5,62.4H6.5V87.8h87V62.4h-19c-8,0-9.1,6.5-13.6,9.8C55.7,76,44.3,76,39,72.2c-4.5-3.2-5.5-9.8-13.5-9.8Z" fill="#bc9680" fill-rule="evenodd"/><path d="M6.5,41.1H18.7a1.538,1.538,0,0,0,1.5-1.5V36.5h1.3c.8,0,1.5.6,2.6,1.5A11.614,11.614,0,0,0,32,41.2a6.6,6.6,0,0,0,1.4-.1,16.617,16.617,0,0,0,6.3-2.2c1.9-1,3.5-1.8,5.8-1.4l5.8.9a6.4,6.4,0,0,0,6.2-2l.6-.9L67,37c5,.9,8.2-1.7,9.1-4.5.9-2.9-.3-6.8-5-9.1L52.4,14.5a13.017,13.017,0,0,0-1.7-.8C45.4,11.1,40.8,8.8,34,13c-3.8,2.3-9.5,3.1-13.3,3.1h-.6V13a1.538,1.538,0,0,0-1.5-1.5H6.5A1.473,1.473,0,0,0,5,13V39.7a1.453,1.453,0,0,0,1.5,1.4Zm14.3-22c4.3,0,10.5-.9,14.8-3.6,5.4-3.3,8.5-1.7,13.8.9a13.017,13.017,0,0,0,1.7.8l18.7,8.9c3.3,1.6,4,3.9,3.5,5.5s-2.5,3.1-5.7,2.5l-8.7-1.5a6.461,6.461,0,0,0-.5-2.7,6.607,6.607,0,0,0-5.2-4.2L38,23.4a1.513,1.513,0,1,0-.4,3l15.2,2.3a3.72,3.72,0,0,1,2.5,5.8,3.4,3.4,0,0,1-3.4.9l-5.8-.9c-3.3-.5-5.5.6-7.6,1.7A13.934,13.934,0,0,1,33.3,38c-3.6.4-5.4-1.1-7.1-2.5-1.3-1.1-2.7-2.2-4.5-2.2H20.4V19.1ZM8,14.5h9.2V38.2H8Z"/><path d="M45.6,50.1c-2.8,2.5-4.9,7.3-5.1,11.9a1.617,1.617,0,0,0,1.4,1.6h1.2c4.2,0,8.6-1.4,11.2-3.8,2.8-2.5,4.9-7.3,5.1-11.9A1.617,1.617,0,0,0,58,46.3c-4.5-.2-9.5,1.3-12.4,3.8Zm6.8,7.5c-1.9,1.7-5.4,2.9-8.7,3,.5-3.3,2-6.6,4-8.3,1.9-1.7,5.4-2.9,8.7-3C55.8,52.7,54.3,55.9,52.4,57.6Z"/><path d="M93.5,60.9h-19c-6.1,0-8.7,3.4-11,6.4A17.635,17.635,0,0,1,60,71c-4.7,3.4-15.4,3.4-20.1,0a17.212,17.212,0,0,1-3.4-3.7c-2.3-3-4.9-6.4-11-6.4H6.5A1.538,1.538,0,0,0,5,62.4V87.8a1.538,1.538,0,0,0,1.5,1.5h87A1.538,1.538,0,0,0,95,87.8V62.4A1.538,1.538,0,0,0,93.5,60.9ZM92,86.3H8V63.9H25.5c4.6,0,6.5,2.4,8.7,5.2a20.785,20.785,0,0,0,4.1,4.3c5.7,4.1,17.9,4.1,23.6,0A20.785,20.785,0,0,0,66,69.1c2.2-2.8,4-5.2,8.7-5.2H92Z"/><path d="M15.4,73.3a1.5,1.5,0,1,0,1.5,1.5A1.538,1.538,0,0,0,15.4,73.3Z"/><path d="M27,78.3a1.5,1.5,0,1,0,1.5,1.5A1.538,1.538,0,0,0,27,78.3Z"/><path d="M71.1,77.3a1.5,1.5,0,1,0,1.5,1.5A1.473,1.473,0,0,0,71.1,77.3Z"/><path d="M85,78.4a1.5,1.5,0,1,0-1.5-1.5A1.473,1.473,0,0,0,85,78.4Z"/></g></svg>
